X:1
T: The Glens of Mayo
C:
R:Jig
Q:180
K:G
M:6/8
L:1/16
e2|d2B2G2 A2G2E2|G2A2B2 c4e2|d2B2G2 B2A2G2|A2B2d2 e4g2|d2B2G2 A2G2E2|G2B2d2 g2f2e2|d2B2G2 A2G2E2|G2A2G2 G4e2|
d2B2G2 A2G2E2|G2A2B2 c4e2|d2B2G2 B2A2G2|A2B2d2 e4g2|d2B2G2 A2G2E2|G2B2d2 g2f2e2|d2B2G2 A2G2E2|G2A2G2 G4B2|
B2c2B2 B2e2g2|f2e2d2 e4g2|f2e2d2 d2B2A2|B2d2^c2 d4B2|B2c2B2 B2e2f2|g2a2b2 a4ba|g2f2e2 d2B2A2|G2E2E2 E4B2|
B2c2B2 B2e2g2|f2e2d2 e4g2|f2e2d2 d2B2A2|B2d2^c2 d4B2|B2c2B2 B2e2f2|g2a2b2 a4ba|g2f2e2 d2B2A2|G2E2E2 E4||
